examples/jitter_line.svg

<?xml version="1.0" encoding="utf-8" ?>
<svg baseProfile="full" height="100%" version="1.1" viewBox="0.0 2.0 490.0 508.0" width="100%" xmlns="http://www.w3.org/2000/svg" xmlns:ev="http://www.w3.org/2001/xml-events" xmlns:xlink="http://www.w3.org/1999/xlink"><defs /><path stroke-width="2" stroke="red" fill="none" d="m10 12c0 0 0.3226437214000004 0.8537560313999997 26.4619409018 27.4753769363 34.18662870880001 32.474277379899995 34.6513112038 31.779084382100002 45.4938695002 47.2361879067 38.723860968 43.42273435699998 21.157821620999997 25.20478465299999 73.65023458799999 76.47088186999999 16.031528017 21.084886127000004 17.306669401000022 17.014108824000004 38.10967998300001 39.569199642 41.30609280500002 26.288821121000012 21.751565698000007 30.908984933 80.57326537999998 83.65905001200002 16.76776191900001 24.746261822000008 11.877440544000024 18.988947956000004 49.91846614100001 51.830237184 24.27412593400004 18.699219918999972 4.830385286000023 13.98977666999997 41.406813209000006 42.99260605500001 12.983936803000006 7.49602893499997 1.9473329120000358 0.23611453799998117 55.95321935100003 58.096108603000005 26.311269191999997 36.82032953099997 58.43251094599998 60.67035179099997 58.43251094599998 60.67035179099997"/>
</svg>

<?xml version="1.0" encoding="utf-8" ?>
<svg baseProfile="full" height="508.0" version="1.1" viewBox="0.0 2.0 490.0 508.0" width="490.0" xmlns="http://www.w3.org/2000/svg" xmlns:ev="http://www.w3.org/2001/xml-events" xmlns:xlink="http://www.w3.org/1999/xlink"><defs /><path d="M 10,12 C 10,12 10.3226437214,12.8537560314 36.4619409018,39.4753769363 70.6485696106,71.9496543162 71.1132521056,71.2544613184 81.955810402,86.711564843 120.67967137,130.1342992 103.113632023,111.916349496 155.60604499,163.182446713 171.637573007,184.26733284 172.912714391,180.196555537 193.715724973,202.751646355 235.021817778,229.040467476 215.467290671,233.660631288 274.288990353,286.410696367 291.056752272,311.156958189 286.166430897,305.399644323 324.207456494,338.240933551 348.481582428,356.94015347 329.03784178,352.230710221 365.614269703,381.233539606 378.598206506,388.729568541 367.561602615,381.469654144 421.567489054,439.329648209 447.878758246,476.14997774 480,500 480,500" fill="none" stroke="red" stroke-width="2" /></svg>
